public/remove.svg

<svg width="16" height="16" viewBox="0 0 16 16" fill="none" xmlns="http://www.w3.org/2000/svg">
<path d="M13.5 4.25H11.5V3C11.5 2.44844 11.0516 2 10.5 2H5.5C4.94844 2 4.5 2.44844 4.5 3V4.25H2.5C2.22344 4.25 2 4.47344 2 4.75V5.25C2 5.31875 2.05625 5.375 2.125 5.375H3.06875L3.45469 13.5469C3.47969 14.0797 3.92031 14.5 4.45312 14.5H11.5469C12.0813 14.5 12.5203 14.0813 12.5453 13.5469L12.9312 5.375H13.875C13.9438 5.375 14 5.31875 14 5.25V4.75C14 4.47344 13.7766 4.25 13.5 4.25ZM10.375 4.25H5.625V3.125H10.375V4.25Z" fill="white"/>
</svg>

<svg width="16" height="16" fill="none" xmlns="http://www.w3.org/2000/svg"><path d="M13.5 4.25h-2V3a1 1 0 0 0-1-1h-5a1 1 0 0 0-1 1v1.25h-2a.5.5 0 0 0-.5.5v.5c0 .069.056.125.125.125h.944l.386 8.172a1 1 0 0 0 .998.953h7.094a.999.999 0 0 0 .998-.953l.386-8.172h.944A.125.125 0 0 0 14 5.25v-.5a.5.5 0 0 0-.5-.5zm-3.125 0h-4.75V3.125h4.75V4.25z" fill="#fff"/></svg>
